src/assets/Imgs/profileCom/twitter.svg

<svg fill="none" height="25" viewBox="0 0 25 25" width="25" xmlns="http://www.w3.org/2000/svg"><path d="m19.6016 9.25977c-.525.2625-1.05.35-1.6625.4375.6125-.35 1.05-.875 1.225-1.575-.525.35-1.1375.525-1.8375.7-.525-.525-1.3125-.875-2.1-.875-1.8375 0-3.2375 1.75-2.8 3.50003-2.3625-.0875-4.46254-1.225-5.95004-2.97503-.7875 1.3125-.35 2.97503.875 3.85003-.4375 0-.875-.175-1.3125-.35 0 1.3125.9625 2.5375 2.275 2.8875-.4375.0875-.875.175-1.3125.0875.35 1.1375 1.4 2.0125 2.7125 2.0125-1.05.7875-2.625 1.225-4.1125 1.05 1.3125.7875 2.8 1.3125 4.375 1.3125 5.33754 0 8.31254-4.4625 8.13754-8.575.6125-.35 1.1375-.87503 1.4875-1.48753z" fill="#1da1f2"/></svg>

<svg width="25" height="25" viewBox="0 0 25 25" fill="none" xmlns="http://www.w3.org/2000/svg">
<g id="Twitter">
<path id="twitter" d="M19.6016 9.25977C19.0766 9.52227 18.5516 9.60977 17.9391 9.69727C18.5516 9.34727 18.9891 8.82227 19.1641 8.12227C18.6391 8.47227 18.0266 8.64727 17.3266 8.82227C16.8016 8.29727 16.0141 7.94727 15.2266 7.94727C13.3891 7.94727 11.9891 9.69727 12.4266 11.4473C10.0641 11.3598 7.96406 10.2223 6.47656 8.47227C5.68906 9.78477 6.12656 11.4473 7.35156 12.3223C6.91406 12.3223 6.47656 12.1473 6.03906 11.9723C6.03906 13.2848 7.00156 14.5098 8.31406 14.8598C7.87656 14.9473 7.43906 15.0348 7.00156 14.9473C7.35156 16.0848 8.40156 16.9598 9.71406 16.9598C8.66406 17.7473 7.08906 18.1848 5.60156 18.0098C6.91406 18.7973 8.40156 19.3223 9.97656 19.3223C15.3141 19.3223 18.2891 14.8598 18.1141 10.7473C18.7266 10.3973 19.2516 9.87227 19.6016 9.25977Z" fill="#1DA1F2"/>
</g>
</svg>
